;FLAVOR:Marlin
;TIME:3389
;Filament used: 3.35835m
;Layer height: 0.28
;MINX:56.025
;MINY:56.059
;MINZ:0.28
;MAXX:163.975
;MAXY:163.984
;MAXZ:19.88
;Generated with Cura_SteamEngine 5.4.0
M82 ;absolute extrusion mode
; Ender 3 Custom Start G-code
G92 E0 ; Reset Extruder
G28 ; Home all axes
M104 S120 ; Start heating up the nozzle most of the way
M190 S70 ; Start heating the bed, wait until target temperature reached
M109 S215 ; Finish heating the nozzle
G1 Z2.0 F3000 ; Move Z Axis up little to prevent scratching of Heat Bed
G1 X0.1 Y20 Z0.3 F5000.0 ; Move to start position
G1 X0.1 Y200.0 Z0.3 F1500.0 E15 ; Draw the first line
G1 X0.4 Y200.0 Z0.3 F5000.0 ; Move to side a little
G1 X0.4 Y20 Z0.3 F1500.0 E30 ; Draw the second line
G92 E0 ; Reset Extruder
G1 Z2.0 F3000 ; Move Z Axis up little to prevent scratching of Heat Bed
G1 X5 Y20 Z0.3 F5000.0 ; Move over to prevent blob squish
G92 E0
G92 E0
G1 F1500 E-6.5
;LAYER_COUNT:71
;LAYER:0
M107
G0 F6000 X71.631 Y72.025 Z0.28
;TYPE:SKIRT
G1 F1500 E0
G1 F900 X72.146 Y71.536 E0.03307
G1 X74.593 Y69.277 E0.18814
G1 X75.311 Y68.634 E0.23302
G1 X76.06 Y68.022 E0.27806
G1 X79.106 Y65.757 E0.45481
G1 X79.817 Y65.244 E0.49563
G1 X80.44 Y64.827 E0.53054
G1 X81.081 Y64.433 E0.56558
G1 X84.112 Y62.65 E0.72932
G1 X84.771 Y62.273 E0.76468
G1 X85.489 Y61.9 E0.80235
G1 X86.063 Y61.63 E0.83189
G1 X89.285 Y60.168 E0.99664
G1 X89.976 Y59.869 E1.0317
G1 X90.687 Y59.589 E1.06728
G1 X91.396 Y59.342 E1.10224
G1 X94.762 Y58.229 E1.26732
G1 X95.41 Y58.026 E1.29894
G1 X96.126 Y57.83 E1.33351
G1 X96.913 Y57.644 E1.37116
G1 X100.313 Y56.911 E1.53312
G1 X101.033 Y56.766 E1.56732
G1 X101.845 Y56.636 E1.60561
G1 X102.604 Y56.544 E1.64121
G1 X105.86 Y56.199 E1.79367
G1 X106.77 Y56.115 E1.83623
G1 X107.521 Y56.072 E1.87125
G1 X108.221 Y56.06 E1.90385
G1 X111.599 Y56.059 E2.06115
G1 X112.447 Y56.072 E2.10064
G1 X113.201 Y56.111 E2.13579
G1 X113.941 Y56.176 E2.17039
G1 X117.464 Y56.551 E2.33536
G1 X118.178 Y56.639 E2.36886
G1 X118.947 Y56.763 E2.40513
G1 X119.67 Y56.907 E2.43945
G1 X122.982 Y57.622 E2.59723
G1 X123.83 Y57.819 E2.63776
G1 X124.588 Y58.023 E2.67432
G1 X125.307 Y58.249 E2.70941
G1 X128.615 Y59.345 E2.87168
G1 X129.341 Y59.599 E2.90749
G1 X130.099 Y59.897 E2.94542
G1 X130.703 Y60.162 E2.97613
G1 X133.88 Y61.605 E3.13861
G1 X134.607 Y61.947 E3.17602
G1 X135.472 Y62.405 E3.2216
G1 X138.76 Y64.342 E3.39929
G1 X139.501 Y64.791 E3.43964
G1 X140.183 Y65.241 E3.47768
G1 X140.742 Y65.645 E3.5098
G1 X143.446 Y67.651 E3.66657
G1 X144.138 Y68.181 E3.70716
G1 X144.719 Y68.659 E3.74219
G1 X145.278 Y69.158 E3.77709
G1 X147.725 Y71.417 E3.93216
G1 X148.408 Y72.066 E3.97603
G1 X148.954 Y72.625 E4.01242
G1 X149.469 Y73.196 E4.04822
G1 X151.711 Y75.759 E4.20678
G1 X152.2 Y76.334 E4.24193
G1 X152.7 Y76.969 E4.27956
G1 X153.153 Y77.595 E4.31554
G1 X155.078 Y80.337 E4.47155
G1 X155.554 Y81.035 E4.51089
G1 X155.982 Y81.718 E4.54842
G1 X156.381 Y82.414 E4.58577
G1 X158.032 Y85.402 E4.74473
G1 X158.366 Y86.024 E4.77761
G1 X158.715 Y86.737 E4.81457
G1 X159.025 Y87.439 E4.85031
G1 X160.367 Y90.623 E5.0112
G1 X160.645 Y91.311 E5.04575
G1 X160.92 Y92.074 E5.08352
G1 X161.154 Y92.81 E5.11948
G1 X162.141 Y96.086 E5.2788
G1 X162.35 Y96.825 E5.31456
G1 X162.527 Y97.539 E5.34881
G1 X162.639 Y98.068 E5.37399
G1 X163.33 Y101.736 E5.54779
G1 X163.453 Y102.452 E5.58162
G1 X163.556 Y103.211 E5.61728
G1 X163.628 Y103.945 E5.65163
G1 X163.894 Y107.287 E5.80774
G1 X163.953 Y108.181 E5.84945
G1 X163.975 Y108.955 E5.88551
G1 X163.967 Y109.7 E5.9202
G1 X163.872 Y113.198 E6.08314
G1 X163.841 Y113.921 E6.11684
G1 X163.785 Y114.663 E6.15149
G1 X163.731 Y115.145 E6.17407
G1 X163.232 Y118.869 E6.34903
G1 X163.124 Y119.599 E6.38339
G1 X162.939 Y120.546 E6.42832
G1 X161.976 Y124.525 E6.61895
G1 X161.792 Y125.228 E6.65279
G1 X161.571 Y125.961 E6.68843
G1 X161.351 Y126.604 E6.72008
G1 X160.148 Y129.936 E6.88503
G1 X159.896 Y130.607 E6.91841
G1 X159.594 Y131.326 E6.95472
G1 X159.264 Y132.034 E6.9911
G1 X157.826 Y134.99 E7.14416
G1 X157.423 Y135.793 E7.186
G1 X157.047 Y136.478 E7.22238
G1 X156.675 Y137.093 E7.25585
G1 X154.818 Y140.06 E7.41884
G1 X154.422 Y140.676 E7.45294
G1 X153.951 Y141.348 E7.49115
G1 X153.505 Y141.935 E7.52547
G1 X151.396 Y144.62 E7.68446
G1 X150.897 Y145.238 E7.72144
G1 X150.348 Y145.867 E7.76032
G1 X149.992 Y146.243 E7.78443
G1 X147.498 Y148.805 E7.95092
G1 X146.914 Y149.388 E7.98934
G1 X146.315 Y149.944 E8.0274
G1 X145.879 Y150.317 E8.05412
G1 X143.027 Y152.682 E8.22664
G1 X142.494 Y153.11 E8.25847
G1 X141.88 Y153.567 E8.29411
G1 X141.274 Y153.982 E8.32831
G1 X138.386 Y155.895 E8.48961
G1 X137.736 Y156.313 E8.5256
G1 X137.046 Y156.721 E8.56292
G1 X136.5 Y157.016 E8.59182
G1 X133.324 Y158.665 E8.75845
G1 X132.655 Y159.001 E8.79331
G1 X131.933 Y159.329 E8.83024
G1 X131.3 Y159.589 E8.8621
G1 X128.156 Y160.817 E9.01927
G1 X127.247 Y161.157 E9.06446
G1 X126.334 Y161.451 E9.10913
G1 X122.627 Y162.464 E9.28807
G1 X121.786 Y162.682 E9.32852
G1 X120.99 Y162.854 E9.36644
G1 X120.394 Y162.959 E9.39462
G1 X116.836 Y163.531 E9.56243
G1 X116.098 Y163.638 E9.59715
G1 X115.318 Y163.721 E9.63367
G1 X114.607 Y163.769 E9.66686
G1 X111.261 Y163.949 E9.82289
G1 X110.424 Y163.982 E9.86189
G1 X109.631 Y163.984 E9.89882
G1 X108.881 Y163.955 E9.93377
G1 X105.551 Y163.779 E10.08904
G1 X104.663 Y163.72 E10.13048
G1 X103.892 Y163.638 E10.16658
G1 X103.158 Y163.533 E10.20111
G1 X99.825 Y162.997 E10.3583
G1 X98.963 Y162.844 E10.39907
G1 X98.182 Y162.674 E10.43629
G1 X97.457 Y162.488 E10.47114
G1 X94.359 Y161.644 E10.62065
G1 X93.413 Y161.372 E10.66649
G1 X92.661 Y161.125 E10.70334
G1 X92.013 Y160.884 E10.73554
G1 X88.911 Y159.67 E10.89065
G1 X88.061 Y159.324 E10.93338
G1 X87.364 Y159.01 E10.96898
G1 X86.717 Y158.686 E11.00267
G1 X83.599 Y157.067 E11.16626
G1 X82.895 Y156.688 E11.20349
G1 X82.064 Y156.192 E11.24856
G1 X78.782 Y154.019 E11.43184
G1 X78.151 Y153.586 E11.46747
G1 X77.517 Y153.116 E11.50422
G1 X76.925 Y152.642 E11.53954
G1 X74.335 Y150.494 E11.69622
G1 X73.656 Y149.915 E11.73777
G1 X73.094 Y149.4 E11.77326
G1 X72.723 Y149.034 E11.79753
G1 X70.162 Y146.402 E11.96853
G1 X69.633 Y145.845 E12.0043
G1 X69.1 Y145.236 E12.04198
G1 X68.629 Y144.654 E12.07685
G1 X66.591 Y142.056 E12.2306
G1 X66.057 Y141.356 E12.2716
G1 X65.604 Y140.713 E12.30822
G1 X65.179 Y140.056 E12.34466
G1 X63.369 Y137.163 E12.50356
G1 X62.963 Y136.494 E12.54
G1 X62.564 Y135.771 E12.57845
G1 X62.254 Y135.158 E12.61044
G1 X60.714 Y131.987 E12.77459
G1 X60.412 Y131.335 E12.80804
G1 X60.11 Y130.619 E12.84423
G1 X59.824 Y129.862 E12.88191
G1 X58.682 Y126.694 E13.03872
G1 X58.434 Y125.976 E13.07409
G1 X58.191 Y125.167 E13.11342
G1 X57.999 Y124.429 E13.14893
G1 X57.203 Y121.161 E13.30555
G1 X57.032 Y120.413 E13.34128
G1 X56.914 Y119.823 E13.36929
G1 X56.823 Y119.248 E13.3964
G1 X56.331 Y115.612 E13.56725
G1 X56.221 Y114.693 E13.61035
G1 X56.151 Y113.751 E13.65434
G1 X56.037 Y109.866 E13.83531
G1 X56.025 Y108.983 E13.87643
G1 X56.045 Y108.199 E13.91295
G1 X56.091 Y107.451 E13.94785
G1 X56.359 Y104.111 E14.10387
G1 X56.439 Y103.257 E14.14381
G1 X56.546 Y102.455 E14.18149
G1 X56.676 Y101.705 E14.21693
G1 X57.328 Y98.255 E14.38042
G1 X57.465 Y97.579 E14.41254
G1 X57.643 Y96.841 E14.44789
G1 X57.779 Y96.35 E14.47161
G1 X58.842 Y92.822 E14.64319
G1 X59.074 Y92.089 E14.67899
G1 X59.324 Y91.388 E14.71364
G1 X59.59 Y90.723 E14.74699
G1 X60.947 Y87.509 E14.90944
G1 X61.304 Y86.698 E14.9507
G1 X61.64 Y86.009 E14.9864
G1 X61.987 Y85.358 E15.02075
G1 X63.664 Y82.335 E15.18172
G1 X64.052 Y81.663 E15.21785
G1 X64.462 Y81.007 E15.25387
G1 X64.895 Y80.372 E15.28966
G1 X66.921 Y77.492 E15.45363
G1 X67.467 Y76.754 E15.49637
G1 X67.99 Y76.104 E15.53522
G1 X70.593 Y73.127 E15.71936
G1 X71.069 Y72.601 E15.75239
G1 X71.631 Y72.025 E15.78986
G0 F6000 X71.906 Y72.315
G1 F900 X72.417 Y71.83 E15.82267
G1 X74.86 Y69.575 E15.97748
G1 X75.564 Y68.944 E16.0215
G1 X76.299 Y68.343 E16.06571
G1 X79.34 Y66.081 E16.24219
G1 X80.039 Y65.576 E16.28234
G1 X80.649 Y65.168 E16.31652
G1 X81.284 Y64.778 E16.35122
G1 X84.311 Y62.997 E16.51475
G1 X84.956 Y62.628 E16.54935
G1 X85.659 Y62.262 E16.58626
G1 X86.228 Y61.994 E16.61555
G1 X89.444 Y60.535 E16.77999
G1 X90.122 Y60.241 E16.8144
G1 X90.819 Y59.967 E16.84927
G1 X91.522 Y59.722 E16.88394
G1 X94.882 Y58.611 E17.04872
G1 X95.516 Y58.412 E17.07966
G1 X96.218 Y58.219 E17.11357
G1 X96.997 Y58.035 E17.15084
G1 X100.392 Y57.303 E17.31256
G1 X101.097 Y57.161 E17.34604
G1 X101.893 Y57.033 E17.38358
G1 X102.646 Y56.942 E17.4189
G1 X105.897 Y56.597 E17.57113
G1 X106.793 Y56.514 E17.61303
G1 X107.528 Y56.472 E17.64731
G1 X108.221 Y56.46 E17.67959
G1 X111.593 Y56.459 E17.8366
G1 X112.426 Y56.471 E17.87539
G1 X113.166 Y56.509 E17.9099
G1 X113.899 Y56.574 E17.94416
G1 X117.415 Y56.948 E18.1088
G1 X118.115 Y57.034 E18.14164
G1 X118.869 Y57.155 E18.1772
G1 X119.586 Y57.298 E18.21125
G1 X122.892 Y58.012 E18.36874
G1 X123.726 Y58.205 E18.4086
G1 X124.468 Y58.405 E18.44438
G1 X125.181 Y58.629 E18.47918
G1 X128.483 Y59.723 E18.64116
G1 X129.209 Y59.977 E18.67697
G1 X129.938 Y60.263 E18.71344
G1 X130.538 Y60.526 E18.74394
G1 X133.71 Y61.967 E18.90617
G1 X134.42 Y62.301 E18.9427
G1 X135.269 Y62.75 E18.98743
G1 X138.553 Y64.684 E19.16489
G1 X139.281 Y65.125 E19.20452
G1 X139.949 Y65.565 E19.24177
G1 X140.504 Y65.966 E19.27365
G1 X143.203 Y67.969 E19.43016
G1 X143.884 Y68.49 E19.47008
G1 X144.453 Y68.958 E19.50439
G1 X145.007 Y69.452 E19.53895
G1 X147.45 Y71.707 E19.69376
G1 X148.122 Y72.345 E19.73691
G1 X148.657 Y72.893 E19.77257
G1 X149.168 Y73.459 E19.80808
G1 X151.406 Y76.018 E19.96638
G1 X151.886 Y76.582 E20.00086
G1 X152.376 Y77.204 E20.03773
G1 X152.826 Y77.825 E20.07344
G1 X154.748 Y80.563 E20.22921
G1 X155.215 Y81.247 E20.26778
G1 X155.635 Y81.917 E20.3046
G1 X156.031 Y82.608 E20.34168
G1 X157.68 Y85.591 E20.50039
G1 X158.007 Y86.2 E20.53258
G1 X158.349 Y86.899 E20.56882
G1 X158.656 Y87.594 E20.60419
G1 X159.996 Y90.773 E20.76484
G1 X160.269 Y91.447 E20.7987
G1 X160.539 Y92.195 E20.83573
G1 X160.771 Y92.925 E20.87139
G1 X161.756 Y96.195 E21.03042
G1 X161.962 Y96.921 E21.06556
G1 X162.136 Y97.622 E21.09919
G1 X162.246 Y98.142 E21.12394
G1 X162.936 Y101.804 E21.29746
G1 X163.057 Y102.506 E21.33063
G1 X163.158 Y103.25 E21.36559
G1 X163.229 Y103.977 E21.3996
G1 X163.495 Y107.313 E21.55543
G1 X163.553 Y108.193 E21.5965
G1 X163.575 Y108.951 E21.63181
G1 X163.567 Y109.689 E21.66617
G1 X163.472 Y113.181 E21.82884
G1 X163.442 Y113.891 E21.86193
G1 X163.387 Y114.618 E21.89588
G1 X163.333 Y115.1 E21.91846
G1 X162.836 Y118.811 E22.0928
G1 X162.731 Y119.523 E22.12631
G1 X162.55 Y120.452 E22.17039
G1 X161.589 Y124.424 E22.36068
G1 X161.409 Y125.113 E22.39383
G1 X161.193 Y125.831 E22.42875
G1 X160.975 Y126.468 E22.4601
G1 X159.774 Y129.795 E22.6248
G1 X159.527 Y130.452 E22.65749
G1 X159.225 Y131.171 E22.6938
G1 X158.904 Y131.859 E22.72915
G1 X157.469 Y134.811 E22.88199
G1 X157.073 Y135.6 E22.92309
G1 X156.704 Y136.271 E22.95875
G1 X156.336 Y136.881 E22.99192
G1 X154.482 Y139.844 E23.15468
G1 X154.095 Y140.446 E23.188
G1 X153.632 Y141.106 E23.22554
G1 X153.19 Y141.688 E23.25957
G1 X151.085 Y144.369 E23.41829
G1 X150.596 Y144.975 E23.45455
G1 X150.057 Y145.592 E23.4927
G1 X149.705 Y145.964 E23.51655
G1 X147.211 Y148.526 E23.68304
G1 X146.642 Y149.095 E23.72051
G1 X146.055 Y149.64 E23.7578
G1 X145.624 Y150.009 E23.78422
G1 X142.777 Y152.37 E23.95645
G1 X142.255 Y152.789 E23.98761
G1 X141.654 Y153.237 E24.02252
G1 X141.053 Y153.649 E24.05645
G1 X138.17 Y155.559 E24.21748
G1 X137.533 Y155.969 E24.25275
G1 X136.856 Y156.369 E24.28937
G1 X136.316 Y156.661 E24.31796
G1 X133.144 Y158.308 E24.48438
G1 X132.489 Y158.637 E24.51851
G1 X131.781 Y158.959 E24.55473
G1 X131.154 Y159.216 E24.58628
G1 X128.016 Y160.442 E24.74316
G1 X127.124 Y160.776 E24.78751
G1 X126.229 Y161.065 E24.8313
G1 X122.527 Y162.077 E25.01001
G1 X121.701 Y162.291 E25.04974
G1 X120.92 Y162.46 E25.08695
G1 X120.331 Y162.564 E25.1148
G1 X116.779 Y163.135 E25.28232
G1 X116.055 Y163.24 E25.31638
G1 X115.291 Y163.322 E25.35216
G1 X114.586 Y163.37 E25.38507
G1 X111.245 Y163.549 E25.54086
G1 X110.423 Y163.582 E25.57917
G1 X109.646 Y163.584 E25.61535
G1 X108.902 Y163.556 E25.65001
G1 X105.578 Y163.38 E25.80501
G1 X104.705 Y163.322 E25.84575
G1 X103.949 Y163.242 E25.88115
G1 X103.222 Y163.138 E25.91535
G1 X99.895 Y162.603 E26.07226
G1 X99.048 Y162.453 E26.11231
G1 X98.282 Y162.287 E26.14881
G1 X97.562 Y162.102 E26.18342
G1 X94.469 Y161.259 E26.3327
G1 X93.538 Y160.992 E26.3778
G1 X92.801 Y160.75 E26.41392
G1 X92.159 Y160.511 E26.44582
G1 X89.062 Y159.3 E26.60066
G1 X88.225 Y158.959 E26.64274
G1 X87.543 Y158.652 E26.67757
G1 X86.901 Y158.331 E26.71099
G1 X83.788 Y156.715 E26.87431
G1 X83.1 Y156.345 E26.91069
G1 X82.285 Y155.858 E26.9549
G1 X79.008 Y153.689 E27.13788
G1 X78.389 Y153.265 E27.17282
G1 X77.767 Y152.804 E27.20887
G1 X77.18 Y152.334 E27.24389
G1 X74.594 Y150.189 E27.40033
G1 X73.926 Y149.62 E27.44119
G1 X73.375 Y149.115 E27.476
G1 X73.01 Y148.755 E27.49987
G1 X70.452 Y146.127 E27.67064
G1 X69.934 Y145.581 E27.70568
G1 X69.411 Y144.984 E27.74264
G1 X68.944 Y144.407 E27.7772
G1 X66.909 Y141.813 E27.93073
G1 X66.384 Y141.125 E27.97102
G1 X65.94 Y140.496 E28.00687
G1 X65.518 Y139.844 E28.04304
G1 X63.711 Y136.956 E28.20167
G1 X63.313 Y136.3 E28.2374
G1 X62.921 Y135.591 E28.27512
G1 X62.614 Y134.983 E28.30684
G1 X61.077 Y131.818 E28.47067
G1 X60.78 Y131.179 E28.50348
G1 X60.484 Y130.478 E28.53892
G1 X60.2 Y129.726 E28.57635
G1 X59.06 Y126.563 E28.7329
G1 X58.817 Y125.861 E28.76749
G1 X58.578 Y125.067 E28.8061
G1 X58.388 Y124.334 E28.84136
G1 X57.593 Y121.072 E28.9977
G1 X57.424 Y120.334 E29.03296
G1 X57.309 Y119.76 E29.06022
G1 X57.219 Y119.194 E29.0869
G1 X56.728 Y115.564 E29.25747
G1 X56.62 Y114.663 E29.29972
G1 X56.551 Y113.739 E29.34287
G1 X56.437 Y109.86 E29.52357
G1 X56.425 Y108.993 E29.56394
G1 X56.444 Y108.224 E29.59976
G1 X56.49 Y107.483 E29.63433
G1 X56.757 Y104.148 E29.79012
G1 X56.835 Y103.31 E29.82931
G1 X56.94 Y102.523 E29.86628
G1 X57.069 Y101.779 E29.90144
G1 X57.72 Y98.334 E30.0647
G1 X57.854 Y97.672 E30.09615
G1 X58.028 Y96.948 E30.13082
G1 X58.162 Y96.465 E30.15416
G1 X59.223 Y92.943 E30.32544
G1 X59.451 Y92.223 E30.3606
G1 X59.696 Y91.536 E30.39457
G1 X59.958 Y90.879 E30.4275
G1 X61.313 Y87.67 E30.5897
G1 X61.664 Y86.873 E30.63025
G1 X61.993 Y86.197 E30.66526
G1 X62.337 Y85.552 E30.6993
G1 X64.01 Y82.535 E30.85994
G1 X64.391 Y81.875 E30.89542
G1 X64.793 Y81.232 E30.93073
G1 X65.222 Y80.602 E30.96622
G1 X67.243 Y77.73 E31.12975
G1 X67.779 Y77.005 E31.17173
G1 X68.302 Y76.355 E31.21058
G1 X70.89 Y73.395 E31.39366
G1 X71.355 Y72.88 E31.42597
G1 X71.906 Y72.315 E31.46272
G0 F6000 X72.181 Y72.605
G1 F900 X72.688 Y72.124 E31.49526
G1 X75.127 Y69.873 E31.64981
G1 X75.817 Y69.254 E31.69297
G1 X76.538 Y68.664 E31.73635
G1 X79.574 Y66.405 E31.91256
G1 X80.262 Y65.908 E31.95208
G1 X80.858 Y65.509 E31.98548
G1 X81.487 Y65.123 E32.01984
G1 X84.509 Y63.344 E32.18313
G1 X85.141 Y62.983 E32.21702
G1 X85.83 Y62.624 E32.2532
G1 X86.393 Y62.358 E32.2822
G1 X89.604 Y60.902 E32.44637
G1 X90.268 Y60.613 E32.48009
G1 X90.951 Y60.345 E32.51425
G1 X91.648 Y60.102 E32.54862
G1 X95.002 Y58.993 E32.71311
G1 X95.622 Y58.798 E32.74338
G1 X96.31 Y58.608 E32.77661
G1 X97.081 Y58.426 E32.8135
G1 X100.471 Y57.695 E32.97498
G1 X101.161 Y57.556 E33.00776
G1 X101.941 Y57.43 E33.04455
G1 X102.688 Y57.34 E33.07958
G1 X105.934 Y56.995 E33.23158
G1 X106.816 Y56.913 E33.27283
G1 X107.535 Y56.872 E33.30636
G1 X108.221 Y56.86 E33.33831
G1 X111.588 Y56.859 E33.49509
G1 X112.406 Y56.87 E33.53318
G1 X113.13 Y56.907 E33.56694
G1 X113.857 Y56.972 E33.60093
G1 X117.366 Y57.345 E33.76524
G1 X118.052 Y57.429 E33.79742
G1 X118.791 Y57.547 E33.83227
G1 X119.502 Y57.689 E33.86603
G1 X122.802 Y58.402 E34.02324
G1 X123.622 Y58.591 E34.06242
G1 X124.348 Y58.787 E34.09744
G1 X125.055 Y59.009 E34.13194
G1 X128.351 Y60.101 E34.29362
G1 X129.077 Y60.355 E34.32944
G1 X129.778 Y60.63 E34.3645
G1 X130.373 Y60.89 E34.39474
G1 X133.54 Y62.329 E34.55672
G1 X134.233 Y62.655 E34.59238
G1 X135.066 Y63.095 E34.63624
G1 X138.346 Y65.026 E34.81348
G1 X139.061 Y65.459 E34.8524
